X:1
T:Thirds, Fourths, Fifths and Sixths in C
M:4/4
L:1/8
K:C
CEDF EGFA | GBAc Bdce | dfeg fagb | ac'ab c'4 |
c'abg afge| fdec dBcA | BGAF GEFD | ECED  C4  |
CFDG EAFB | GcAd Becf | dgea fbgc'| c'4   z4  |
c'gbf aegd| fceB dAcG | BFAE GDFC | C4    z4  |
CGDA EBFc | GdAe Bfcg | daeb fc'ab| c'4   z4  |
c'fbe adgc| fBeA dGcF | BEAD GCED | C4    z4  |
CADB EcFd | GeAf Bgca | dbec' fgab| c'4   z4  |
c'ebd acgB| fAeG dFcE | BDAC GFED | C4    z4 |]
